X: 24450
T: Luck Penny, The
R: jig
M: 6/8
K: Gmajor
(B/c/)|dBG GFG|dBG GAB|cA=F FEF|cA=F FBc|dBG GFG|gag fdB|def gdB|
cAF G2 B/c/|dBG GFG|DGB DGB|cA=F FEF|C=FF A,FF|dBG GFG|gag fdB|de
f gdB|cAF G2||

